X:0357
T:Quick March 10th. Regt.
M:6/8
L:1/8
Q:3/8=88
I: :: ::
Z:Jack Campin * www.campin.me.uk * 2009
K:D
a/g/|fdd daf   |eAA A2  G |FAd   Adg  | fdd  d2
a/g/|fdd daf   |eaa a2  d'|c'ba  c'd'b| aaa  a2::
a   |bgg d'c'd'|aff d'c'd'|egf   efd  | cAA TA2
G   |FAd Adf   |dfa d'2 g |bc'd' abg  | fdd  d2:|

